X: 27
M: C
L: 1/8
K: G
(d<c) | (B<G) (A<c) {c}B2 (A<G) | (B<d) (c<e)
{e}d2 (c<B) | (e<g) (c<e) (A<c) (E<A) | (G2 F2) z2 A2 |
(d<A) (B<c) (B<G) (B<d) | (g<d) (e<=f) {f}e3 ^f |
(g<e) (f<d) (B<g) (e<^c) | {^c2}d4 z2 (dc) | (Bd) (GB)
(EG) (ce) | (dB) (GB) c3 B | (ce) (dB) (Ac) (BG) |
{G2}F4 z2 d2 | (gf) z{d'}f (fe) z{c'}e | (ed) z{b}d (dc) z{a}c |
(3(Bge) (3(dBG) (E<c) (A<F) | G4 z4 | (d<B) (B<G)
e3 g |  d< B B< G g3 d | e3 d
(cB) (AG) | {G2}F4 z2d2 | (gf) z{d'}f (fe) z{c'}e | (ed) z{b}d
(dc) z{a}c | (3(Bge) (3(dBG) | (E<c) (A<F) | {F2}G4 z2 |]

